static/github.svg

<svg width="29" height="29" viewBox="0 0 29 29" fill="none" xmlns="http://www.w3.org/2000/svg">
<path d="M14.4999 0C6.5357 0 -6.10352e-05 6.53576 -6.10352e-05 14.5C-6.10352e-05 21.2963 4.76908 27.4696 11.1015 29V24.2025C10.4739 24.3402 9.89675 24.3441 9.25785 24.1555C8.40088 23.9029 7.70476 23.332 7.18763 22.4614C6.85799 21.9058 6.27459 21.3031 5.66513 21.3473L5.5156 19.6549C6.8325 19.5421 7.97211 20.4575 8.6484 21.5937C8.94859 22.0989 9.29467 22.3951 9.73873 22.526C10.1675 22.6523 10.6286 22.5917 11.1649 22.4019C11.2997 21.3275 11.7919 20.9253 12.1641 20.3589V20.3578C8.38728 19.7942 6.88234 17.7908 6.28478 16.2094C5.49295 14.1097 5.91775 11.4862 7.31791 9.82828C7.34509 9.796 7.39437 9.7116 7.37511 9.65213C6.73338 7.71332 7.51558 6.10926 7.5439 5.93934C8.28476 6.15854 8.40484 5.719 10.7617 7.15088L11.1689 7.39557C11.3394 7.49695 11.2856 7.43918 11.4561 7.42615C12.4399 7.15881 13.477 7.01154 14.4994 6.99795C15.5291 7.01098 16.56 7.15881 17.584 7.43691L17.716 7.44994C17.7047 7.44824 17.7517 7.44145 17.8315 7.39443C20.7752 5.61139 20.6698 6.19422 21.4588 5.93764C21.4871 6.10813 22.2591 7.73824 21.6242 9.65213C21.5387 9.91607 24.1764 12.3312 22.7145 16.2083C22.117 17.7903 20.612 19.7942 16.8352 20.3572V20.3583C17.3195 21.0964 17.9012 21.4889 17.8978 23.0108V29C24.2308 27.4696 28.9994 21.2963 28.9994 14.5C28.9999 6.53576 22.4642 0 14.4999 0Z" fill="white"/>
</svg>

<svg width="29" height="29" fill="none" xmlns="http://www.w3.org/2000/svg"><path d="M14.5 0C6.536 0 0 6.536 0 14.5 0 21.296 4.77 27.47 11.1 29v-4.797c-.627.137-1.204.141-1.843-.047-.857-.253-1.553-.824-2.07-1.695-.33-.555-.913-1.158-1.523-1.114l-.15-1.692c1.317-.113 2.457.802 3.133 1.939.3.505.647.801 1.09.932.43.126.89.066 1.427-.124.135-1.075.627-1.477 1-2.043v-.001c-3.778-.564-5.283-2.567-5.88-4.149-.792-2.1-.367-4.723 1.033-6.38.027-.033.076-.117.057-.177-.642-1.939.14-3.543.169-3.713.74.22.86-.22 3.218 1.212l.407.245c.17.101.117.043.287.03.984-.267 2.021-.414 3.043-.428 1.03.013 2.061.16 3.085.439l.132.013c-.011-.002.036-.009.115-.056 2.944-1.783 2.839-1.2 3.628-1.456.028.17.8 1.8.165 3.714-.085.264 2.552 2.68 1.09 6.556-.597 1.582-2.102 3.586-5.879 4.15.485.738 1.066 1.13 1.063 2.653V29c6.333-1.53 11.101-7.704 11.101-14.5C29 6.536 22.464 0 14.5 0z" fill="#fff"/></svg>
